X: 1
T: Gairsay
C: Ronnie Aim
R: March
M: 4/4
L: 1/8
K: D
DE | F>G FE ED FA | d>e dc B3c | d>e dB AF FG | A>B AF E2 DE |
F>G FE ED FA | d>e dc B3c | d>e dB AF FA | GA/G/ FE D2 ||
cd | e>f ed cA de | f>g fe d2 dc | B>A Bc | d>e dB | A>B AF | E2 DE|
F>G FE ED FA | d>e dc B3c | d>e dB AF FA | GA/G/ FE D2 ||
